X:477
T: Wanzi Ge
N: C0000
O: Asien, Ostasien, China, ........
S: Haozi - Artikel, Essen 1991]
N: Die Phraseneinteilung wurde hier nach musikalischen Kriterien...
R: Haozi zum Wagenziehen]
M: 2/4
L: 1/16
K: A
B2e2c4 | B2ceB4- | B2FE^DE4
c2cBA2B2 | c2A2F4 | B8
c2A2FCE2 | F2C2B,4 | B8
e2B2cec2 | B8
B2e2c4 | B2ceB4- | B2FE^DE4
c2cBA2B2 | c2A2F4 | B2B4z2
B4e4 | B2ceB4 | F8

